X:994
T:Reel 994
M:4/4
K:Amin
L:1/8
ED|:CA,A,B, C2EF|GEDC B,G,G,B,|CA,B,G, E,2A,B,|CDE^F G2ED|CA,A,B, C2DB,|C2B,C DB,G,B,|CA,A,B, CDED|CA,B,G, E,A,A,2|CB,CD EGGG|EAAB cAAA|cABG AGEC|B,A,G,B, D2DB,|CDEF G2EG|AGEG AGED|CB,CD EFGE|AGED CA,A,2|
